assets/images/component/AppFooter/icons/socials/icon-fb.svg

<svg width="23" height="21" viewBox="0 0 23 21" fill="none" xmlns="http://www.w3.org/2000/svg">
<path d="M17.6571 13.483C17.8734 12.3228 18.0828 11.2118 18.3197 9.93682C17.0425 9.93682 15.8718 9.93682 14.5603 9.93682C14.5603 9.06502 14.5603 8.34398 14.5603 7.43285C15.7448 7.43285 16.9224 7.43285 18.2201 7.43285C18.2201 6.14154 18.2201 5.02721 18.2201 3.6769C16.2117 3.82111 14.1449 3.20167 12.2635 4.36844C10.1933 5.6532 10.6121 7.78026 10.4576 9.78606C9.6783 9.84178 8.96076 9.89094 8.12992 9.94666C8.12992 11.1036 8.12992 12.2179 8.12992 13.4666C8.85776 13.5191 9.57187 13.5682 10.5297 13.6371C10.5297 14.8628 10.5297 16.0394 10.5297 17.2193C10.5297 18.409 10.5297 19.602 10.5297 20.9491C8.13335 20.9491 5.86057 21.0474 3.60152 20.9163C2.04285 20.8278 0.90646 19.5627 0.889294 18.0026C0.837796 12.9816 0.827495 7.96052 0.896159 2.94275C0.916758 1.27125 2.22824 0.0618712 3.99978 0.0422065C9.20108 -0.0135101 14.4058 -0.0135102 19.6071 0.038929C21.5366 0.0585937 22.7966 1.31713 22.8137 3.18856C22.8584 8.04574 22.8584 12.9029 22.8172 17.7601C22.8 19.7233 21.5297 20.913 19.4904 20.9753C17.894 21.0244 16.2975 20.9851 14.5569 20.9851C14.5569 18.5467 14.5569 16.1836 14.5569 13.624C15.5388 13.5813 16.5344 13.5355 17.6571 13.483Z" fill="white"/>
</svg>

<svg width="23" height="21" fill="none" xmlns="http://www.w3.org/2000/svg"><path d="M17.657 13.483c.216-1.16.426-2.271.663-3.546h-3.76V7.433h3.66V3.677c-2.008.144-4.075-.475-5.956.691-2.07 1.285-1.652 3.412-1.806 5.418-.78.056-1.497.105-2.328.16v3.52c.728.053 1.442.102 2.4.171v7.313c-2.397 0-4.67.098-6.928-.033-1.56-.088-2.696-1.353-2.713-2.913a629.163 629.163 0 0 1 .007-15.06C.916 1.27 2.228.062 4 .043A750.753 750.753 0 0 1 19.607.038c1.93.02 3.19 1.278 3.207 3.15.044 4.857.044 9.714.003 14.571-.017 1.963-1.287 3.153-3.327 3.215-1.596.05-3.192.01-4.933.01v-7.361c.982-.043 1.977-.088 3.1-.141Z" fill="#fff"/></svg>
